X:241
T:Royal Polka Quadrilles No.3. Le4.241, The
M:2/4
L:1/8
Q:2/4=50
N:* c2 in Mss
N:** ABA_G in Mss
B:L.Leadley MS#4 c1850
Z:Village Music Project 2016 Steve Mansfield
K:C
ee/f/ gc | ed/^c/ d/e/f/g/ | ad/e/ fB | c/c'/b/a/ g/a/g/f/ |
ee/f/ gc | ed/^c/ d/e/f/g/ | ad/e/ fB | c/a/g/e/ "*"c !fine!H ||
G/c/ | ee2 e | ee f>e- | eded | dcdc |
ee2 e- | ee f>e | eded | e3 z !segno! ||
ee/f/ gc | ed/^c/ d/e/f/g/ | ad/e/ fB | c/c'/b/a/ g/a/g/f/ |
ee/f/ gc | ed/^c/ d/e/f/g/ | ad/e/ fB | c/c'/g/e/ "*"c ||
[K:F]
f | e>d cB | ABcd | GABc | "**"A/B/A/^G/ Af |
e>d cB | AA/B/ cd | GG/A/ Bc | F3 !D.C.! |]

